X:1
T:Title
%%score { 1 | 2 }
L:1/8
M:6/8
K:C
V:1 treble nm="Grand Piano"
V:2 bass 
V:1
 z3 z2[Q:1/4=100] [CE] | [EG]>[EG][EG] [FA][EG][K:bass][G,CE] | %2
 [F,B,D][E,C][G,B,D] [G,CE]2[K:treble] [G,CE] | [EG]>[EG][EG] [FA][EG][CE] | [B,D]3- [B,D]2 [CE] | %5
 [EG]>[EG][EG] [FA][EG]E | FGA [CEG]2 [G,CE] | [G,B,D]>[A,D^F][CFA] [EAc][DGB]>[CFA] | %8
[M:5/8] [B,G]-[B,G]- [B,G]3 |[M:1/8] [B,FG] |[M:3/4] [EG]>[EA] [EG][CE]/[EG]/- [EG][Ec] | %11
 c>d cA/c/- cA | [EG]>[EA] [EG][EG]- [EG]/[G,DF]/[G,CE] | [G,B,D]4- [G,B,D][B,FG] | %14
 [EG]>[EA] [EG][CE]/[EG]/- [EG][Ec] | c>d cA/c/- cA | G>c ed- d/c/B |[M:5/8] [Ec]-[Ec]- [Ec]3 |] %18
V:2
 z3 z2 [C,G,] | [C,C]>[C,C][C,C] [C,C][C,C]C, | G,,G,,G,, C,2 C, | %3
 [C,C]>[C,C][C,C] [C,C][C,C][C,G,] | [G,,G,]3- [G,,G,]2 [C,G,] | %5
 [C,C]>[C,C][C,C] [C,C][C,C][C,G,C] | [F,A,C][F,B,F][F,CF] C,2 C, | D,>D,D, D,D,>D, | %8
[M:5/8] G,-G,- G,3 |[M:1/8] G, |[M:3/4] [C,C]>[C,C] [C,C][C,G,]/[C,C]/- [C,C][C,G,] | %11
 [F,A,F]>[F,A,F] [F,A,F][F,CF]/[F,A,F]/- [F,A,F][F,CF] | [C,C]>[C,C] [C,C][C,C]- [C,C]/C,/C, | %13
 G,,4- G,,G,, | [C,C]>[C,C] [C,C][C,G,]/[C,C]/- [C,C][C,G,] | %15
 [F,A,F]>[F,A,F] [F,A,F][F,CF]/[F,A,F]/- [F,A,F][F,CF] | %16
 [G,CE]>[G,EG] [G,CG][G,B,F]- [G,B,F]/[K:bass][G,E]/[G,D] |[M:5/8] [C,G,]-[C,G,]- [C,G,]3 |] %18

